assets/icons/files/netlify_redirects.svg

<!--
  - The MIT License (MIT)
  -
  - Copyright (c) 2015-2022 Elior "Mallowigi" Boukhobza
  -
  - Permission is hereby granted, free of charge, to any person obtaining a copy
  - of this software and associated documentation files (the "Software"), to deal
  - in the Software without restriction, including without limitation the rights
  - to use, copy, modify, merge, publish, distribute, sublicense, and/or sell
  - copies of the Software, and to permit persons to whom the Software is
  - furnished to do so, subject to the following conditions:
  -
  - The above copyright notice and this permission notice shall be included in all
  - copies or substantial portions of the Software.
  -
  - THE SOFTWARE IS PROVIDED "AS IS", WITHOUT WARRANTY OF ANY KIND, EXPRESS OR
  - IMPLIED, INCLUDING BUT NOT LIMITED TO THE WARRANTIES OF MERCHANTABILITY,
  - FITNESS FOR A PARTICULAR PURPOSE AND NONINFRINGEMENT. IN NO EVENT SHALL THE
  - AUTHORS OR COPYRIGHT HOLDERS BE LIABLE FOR ANY CLAIM, DAMAGES OR OTHER
  - LIABILITY, WHETHER IN AN ACTION OF CONTRACT, TORT OR OTHERWISE, ARISING FROM,
  - OUT OF OR IN CONNECTION WITH THE SOFTWARE OR THE USE OR OTHER DEALINGS IN THE
  - SOFTWARE.
  -
  -
  -->

<svg big="true" version="1.1" xmlns="http://www.w3.org/2000/svg" viewBox="0 0 16 16"><g iconColor="Netlify redirects"><path fill="#fe4e5c" d="M15.65,6.85L9.15,.35l-.24-.24-.27-.11h-1.29l-.27,.11-.24,.24L.35,6.85l-.24,.24-.11,.27v1.29l.11,.27,.24,.24,6.5,6.5,.24,.24,.27,.11h1.29l.27-.11,.24-.24,6.5-6.5,.24-.24,.11-.27v-1.29l-.11-.27-.24-.24Z"/><path fill="#fbeeed" d="M7.42,14.5v-3.12l.08-.08h.99l.08,.08v3.12l-.08,.08h-.99l-.08-.08Z"/><path fill="#fbeeed" d="M7.42,4.62V1.5l.08-.08h.99l.08,.08v3.12l-.08,.08h-.99l-.08-.08Z"/><path fill="#fbeeed" d="M4.8,12.19h-.14l-.68-.68v-.14l.91-.91h.72s.1,.1,.1,.1v.72l-.91,.91Z"/><path fill="#fbeeed" d="M3.98,4.66v-.14l.68-.68h.14l.91,.91v.72l-.1,.1h-.72l-.91-.91Z"/><path fill="#fbeeed" d="M1.23,7.42h3.51l.08,.08v.99l-.08,.08H1.23l-.08-.08v-.99l.08-.08Z"/><path fill="#fbeeed" d="M9.86,10.07h-.99l-.08-.08v-2.32c0-.41-.16-.73-.66-.74-.26,0-.55,0-.86,.01l-.05,.05v3.01s-.08,.08-.08,.08h-.99l-.08-.08v-3.97l.08-.08h2.23c.87,0,1.57,.7,1.57,1.57v2.48l-.08,.08h0Z"/><path fill="#fbeeed" d="M14.77,8.58h-3.51l-.08-.08v-.99l.08-.08h3.51l.08,.08v.99l-.08,.08Z"/></g></svg>

<!--
  - The MIT License (MIT)
  -
  - Copyright (c) 2015-2022 Elior "Mallowigi" Boukhobza
  -
  - Permission is hereby granted, free of charge, to any person obtaining a copy
  - of this software and associated documentation files (the "Software"), to deal
  - in the Software without restriction, including without limitation the rights
  - to use, copy, modify, merge, publish, distribute, sublicense, and/or sell
  - copies of the Software, and to permit persons to whom the Software is
  - furnished to do so, subject to the following conditions:
  -
  - The above copyright notice and this permission notice shall be included in all
  - copies or substantial portions of the Software.
  -
  - THE SOFTWARE IS PROVIDED "AS IS", WITHOUT WARRANTY OF ANY KIND, EXPRESS OR
  - IMPLIED, INCLUDING BUT NOT LIMITED TO THE WARRANTIES OF MERCHANTABILITY,
  - FITNESS FOR A PARTICULAR PURPOSE AND NONINFRINGEMENT. IN NO EVENT SHALL THE
  - AUTHORS OR COPYRIGHT HOLDERS BE LIABLE FOR ANY CLAIM, DAMAGES OR OTHER
  - LIABILITY, WHETHER IN AN ACTION OF CONTRACT, TORT OR OTHERWISE, ARISING FROM,
  - OUT OF OR IN CONNECTION WITH THE SOFTWARE OR THE USE OR OTHER DEALINGS IN THE
  - SOFTWARE.
  -
  -
  -->

<svg big="true" version="1.1" xmlns="http://www.w3.org/2000/svg" viewBox="0 0 16 16" width="16" height="16">
  <path iconColor="Netlify redirects" fill="#fe4e5c" d="M15.9,7.1l-0.2-0.2h0L9.2,0.3L8.9,0.1L8.6,0H7.3L7.1,0.1L6.8,0.3L0.3,6.8L0.1,7.1L0,7.4v1.3l0.1,0.3l0.2,0.2
	l6.5,6.5l0.2,0.2L7.4,16h1.3l0.3-0.1l0.2-0.2l6.5-6.5l0.2-0.2L16,8.7V7.4L15.9,7.1z M7.4,1.5L7.4,1.5l1.1-0.1l0.1,0.1v3.1L8.5,4.7
	h-1L7.4,4.6V1.5z M1.2,8.5v-1l0.1-0.1h3.5l0.1,0.1v1L4.7,8.6L1.2,8.5L1.2,8.5z M5.7,11.3l-0.9,0.9H4.7L4,11.5v-0.1l0.9-0.9h0.7
	l0.1,0.1V11.3z M5.7,5.5L5.6,5.6H4.9L4,4.7V4.5l0.7-0.7h0.1l0.9,0.9V5.5z M8.6,14.5L8.6,14.5l-1.1,0.1l-0.1-0.1v-3.1l0.1-0.1h1
	l0.1,0.1V14.5z M10,10L10,10L10,10l-1.1,0.1L8.8,10V7.7c0-0.4-0.2-0.7-0.7-0.7c-0.3,0-0.5,0-0.9,0L7.2,7v3l-0.1,0.1h-1L6.1,10V6
	L6.2,6h2.2C9.2,6,10,6.7,10,7.5V10z M14.8,8.5L14.8,8.5l-3.6,0.1l-0.1-0.1v-1l0.1-0.1h3.5l0.1,0.1V8.5z"/>
</svg>
